assets/img/icons/duotone-icons/Clothes/T-Shirt.svg

<?xml version="1.0" encoding="UTF-8"?>
<svg width="24px" height="24px" viewBox="0 0 24 24" version="1.1" xmlns="http://www.w3.org/2000/svg" xmlns:xlink="http://www.w3.org/1999/xlink">
    <!-- Generator: Sketch 52.2 (67145) - http://www.bohemiancoding.com/sketch -->
    <title>Stockholm-icons / Clothes / T-Shirt</title>
    <desc>Created with Sketch.</desc>
    <g id="Stockholm-icons-/-Clothes-/-T-Shirt" stroke="none" stroke-width="1" fill="none" fill-rule="evenodd">
        <rect id="bound" x="0" y="0" width="24" height="24"></rect>
        <path d="M7.83498136,4 C8.22876115,5.21244017 9.94385174,6.125 11.999966,6.125 C14.0560802,6.125 15.7711708,5.21244017 16.1649506,4 L17.2723671,4 C17.3446978,3.99203791 17.4181234,3.99191839 17.4913059,4 L17.5,4 C17.8012164,4 18.0713275,4.1331782 18.2546625,4.34386406 L22.5900048,6.8468751 C23.0682974,7.12301748 23.2321726,7.73460788 22.9560302,8.21290051 L21.2997802,11.0816097 C21.0236378,11.5599023 20.4120474,11.7237774 19.9337548,11.4476351 L18.5,10.6198563 L18.5,20 C18.5,20.5522847 18.0522847,21 17.5,21 L6.5,21 C5.94771525,21 5.5,20.5522847 5.5,20 L5.5,10.6204852 L4.0673344,11.4476351 C3.58904177,11.7237774 2.97745137,11.5599023 2.70130899,11.0816097 L1.04505899,8.21290051 C0.768916618,7.73460788 0.932791773,7.12301748 1.4110844,6.8468751 L5.74424153,4.34512566 C5.92759515,4.13371 6.19818276,4 6.5,4 L6.50978325,4 C6.58296578,3.99191839 6.65639143,3.99203791 6.72872211,4 L7.83498136,4 Z" id="Combined-Shape" fill="#335EEA"></path>
    </g>
</svg>

<svg width="24" height="24" viewBox="0 0 24 24" xmlns="http://www.w3.org/2000/svg"><g fill="none" fill-rule="evenodd"><path d="M0 0h24v24H0z"/><path d="M7.835 4C8.229 5.212 9.944 6.125 12 6.125S15.771 5.212 16.165 4h1.107a.999.999 0 01.22 0h.008c.301 0 .571.133.755.344l4.335 2.503a1 1 0 01.366 1.366L21.3 11.082a1 1 0 01-1.366.366L18.5 10.62V20a1 1 0 01-1 1h-11a1 1 0 01-1-1v-9.38l-1.433.828a1 1 0 01-1.366-.366l-1.656-2.87a1 1 0 01.366-1.365l4.333-2.502A.998.998 0 016.5 4h.01a.999.999 0 01.219 0h1.106z" fill="#335EEA"/></g></svg>
